X: 17042
T: Heather Breeze, The
R: reel
M: 4/4
K: Gmajor
DGBG dGBG|DFAF cFAF|DGBG dGBG|BdcA BGGE|
DGBG dGBG|DFAF cFAF|DGBG dGBG|BdcA BGGd||
g2 gf gbag|fdde fgaf|g2 gf gbag|fdcA BGGd|
g2 gf gbag|fdde fgaf|g2 gf gbag|fdcA BGGF||

